assets/images/icon/Star2.svg

<svg width="18" height="17" viewBox="0 0 18 17" fill="none" xmlns="http://www.w3.org/2000/svg">
<path d="M9 0L11.0206 6.21885H17.5595L12.2694 10.0623L14.2901 16.2812L9 12.4377L3.70993 16.2812L5.73056 10.0623L0.440492 6.21885H6.97937L9 0Z" fill="#BF9444"/>
</svg>

<svg version="1.2" xmlns="http://www.w3.org/2000/svg" viewBox="0 0 18 17" width="18" height="17">
	<title>Star2-svg</title>
	<defs>
		<clipPath clipPathUnits="userSpaceOnUse" id="cp1">
			<path d="m9 0l2.02 6.22h6.54l-5.29 3.84 2.02 6.22-5.29-3.84-5.29 3.84 2.02-6.22-5.29-3.84h6.54z"/>
		</clipPath>
	</defs>
	<style>
		.s0 { fill: #bf9444 } 
	</style>
	<g clip-path="url(#cp1)">
		<path id="Layer" class="s0" d="m9 0l2 6.2h6.6l-5.3 3.9 2 6.2-5.3-3.9-5.3 3.9 2-6.2-5.3-3.9h6.6z"/>
		<rect width="18" height="17" id="Relleno de color sólido 1" style="fill: #e2a79d"/>
	</g>
</svg>
